X: 46
T: Tom Judge
B: A COLLECTION of the most Celebrated Irish Tunes (11c)
M: 6/4
L: 1/8
K: Dm
|:\
A2d2d2 d4c2 | dcdef2 f3gf2 | e2def2 dcBAGF | D2G2G2 G4AG |
F2D2c2 c2ABc2 | A2F2f2 g2fga2 | f2d2d2 dcA2F2 | A2d2d2 d6 :|
|:D2d2d2 dcdef2 | A2G2F2 G2F2E2 | c4c2 c3dc2 | c2ABc2 d4d2 |
DEF2D2 DEF2D2 | C2E2c2 G2E2C2 | A4G2 F2GFED | C2A,2C2 D6 | D2F2d2 D2F2d2 |
c2dcBA G2E2C2 | F2A2f2 F2A2f2 | e3c de f4e2 | d2edcB c2dcBA |
G2AGFE F2GFED | C2E2c2 | C2E2A2 | TF4E2 FDD4 :|

